X: 826
T: Petticoat Loose
B: O'Neill's 1850 #826
O: F.O'Neill
Z: Dan G. Petersen, dangp@post6.tele.dk
M: 6/8
L: 1/8
K: Am
A |:\
GEE cEE | GFG GcA | GEE cEE | A3 (A/B/cA) |\
GEE cEE | cde eag | fde cAG | EAA [1 (A/B/cA) :|2 A2 |]
|: ^f |\
~g3 ged | cAA Bcd | eaa age | edd d2^f |\
gaf ged | cAA Bcd | (e=f/e/d) cAG | EAA A2 :|
